!!!!SEGMENT: pl-kk--kk-i-482--003_zieleniewicz-mathias--msza-isza-sanctus.krn
!!!cenid: 17xx:1911
!!!COM: Zieleniewicz, Mathias
!!!COM-rism: pe50045913
!!!CDT: <1724->1763
!!!CNT: Polish
!!!OTL: Msza Isza – Sanctus
!!!PDT: 1724
!!!AGN: Sacred; Mass
!!!SMS-siglum: PL-Kk
!!!SMS-shelfmark: Kk.I.482
!!!NIFC-rismID: 1001140322
!!!URL-scan: http://repozytorium.nifc.pl/skany/pl-kk-nut--i-482
!!!ONB-nifc: UWAGA: zakres skanów 0015-0031. Proszę uzupełnić pola !!!SMS dot. partytury i głosów.
!!!SMS-variant: Soprano. PL-Kk KK.I.482:0022; Alto. PL-Kk KK.I.482:0018; Tenore. PL-Kk KK.I.482:0024; Basso. PL-Kk KK.I.482:0028
!!!SMS-altvar: [Partytura] PL-Kk KK.I.482:0008-0009; Soprano PL-Kk KK.I.482:0034; Alto PL-Kk KK.I.482:0038; Tenore. PL-Kk KK.I.482:0043
**kern	**text	**kern	**text	**kern	**text	**kern	**text
*part4	*part4	*part3	*part3	*part2	*part2	*part1	*part1
*staff4	*staff4	*staff3	*staff3	*staff2	*staff2	*staff1	*staff1
*I"Basso.	*	*I"Tenore.	*	*I"Alto.	*	*I"Soprano.	*
*I'B	*	*I'T	*	*I'A	*	*I'S	*
*clefF4	*	*clefC4	*	*clefC3	*	*clefC1	*
*k[]	*	*k[]	*	*k[]	*	*k[]	*
*M2/2	*	*M2/2	*	*M2/2	*	*M2/2	*
*met(c|)	*	*met(c|)	*	*met(c|)	*	*met(c|)	*
=1	=1	=1	=1	=1	=1	=1	=1
*all\right	*	*all\right	*	*all\right	*	*all\right	*
*	*	*	*	*	*	*2\right	*
!LO:TX:a:t=1.	!	!	!	!LO:TX:a:t=1.	!	!	!
!LO:TX:a:t=Sanctus.	!	!LO:TX:a:t=Sanctus	!	!LO:TX:a:t=Sanctus.	!	!LO:TX:a:t=Sanctus.	!
1r	.	2r	.	1r	.	2ee\	San-
*	*	*2\right	*	*	*	*	*
.	.	2e\	San-	.	.	[y2a\	.
=2	=2	=2	=2	=2	=2	=2	=2
!	!	!	!	!	!	!LO:N:xstem:cue	!
1A	San-	2.A\	.	2r	.	4a\]	.
.	.	.	.	.	.	4b\	.
*	*	*	*	*2\right	*	*	*
.	.	.	.	2e\	San-	[y2cc\	.
.	.	4B\	.	.	.	.	.
=3	=3	=3	=3	=3	=3	=3	=3
!	!	!	!	!	!	!LO:N:xstem:cue	!
2.AA/	.	2.c\	.	4A/	.	4cc\]	.
.	.	.	.	4B/	.	4dd\	.
.	.	.	.	4c/	.	4ee\	-ctus
4BB/	-ctus	4d\	-ctus	4d/	.	4dd\	.
=4	=4	=4	=4	=4	=4	=4	=4
2C/	san-	2e\	san-	2e\	-ctus,	4cc\	san-
.	.	.	.	.	.	4b\	.
2D/	.	4f\	.	4d\	san-	[y2a\	.
.	.	4e\	.	4e\	.	.	.
=5	=5	=5	=5	=5	=5	=5	=5
!	!	!	!	!	!	!LO:N:xstem:cue	!
1BB	-ctus,	4d\	.	4f\	.	4a\]	.
.	.	4c\	.	4e\	.	8g#X/L	.
.	.	.	.	.	.	8f#X/J	.
.	.	2d\	-ctus,	2d\	.	2g#\	.
=6	=6	=6	=6	=6	=6	=6	=6
2.AA/	san-	2.c\	san-	4e\	-ctus	2a\	-ctus,
.	.	.	.	2a\	san-	.	.
.	.	.	.	.	.	2e/	san-
4BB/	.	4d\	.	8g\L	.	.	.
.	.	.	.	8f\J	.	.	.
!	!	!	!	!LO:LB:g=original	!	!LO:LB:g=original	!
=7	=7	=7	=7	=7	=7	=7	=7
2.C/	.	2.e\	.	2.e\	.	4e/	.
.	.	.	.	.	.	4fn/	.
.	.	.	.	.	.	[2g\	.
4D/	.	4d\	.	4f\	.	.	.
!	!	!LO:LB:g=original	!	!	!	!	!
=8	=8	=8	=8	=8	=8	=8	=8
*2\right	*	*	*	*	*	*	*
2E\	.	[y1c	.	2g\	-ctus,	2g\]	.
2F\	.	.	.	4f\	san-	2a\	.
.	.	.	.	4g\	.	.	.
=9	=9	=9	=9	=9	=9	=9	=9
!	!	!LO:N:xstem:cue:vis=4	!	!	!	!	!
1D	-ctus,	2c\]	.	2a\	.	1f	.
.	.	2B\	.	2f\	.	.	.
!LO:LB:g=original	!	!	!	!	!	!	!
=10	=10	=10	=10	=10	=10	=10	=10
4C/	San-	1c	-ctus,	1g	-ctus,	2e/	-ctus,
4D/	.	.	.	.	.	.	.
4E/	.	.	.	.	.	2ee\	San-
4C/	.	.	.	.	.	.	.
=11	=11	=11	=11	=11	=11	=11	=11
4F\	.	2.c\	san-	4f\	san-	2.a\	.
4E\	.	.	.	2c\	.	.	.
4F\	.	.	.	.	.	.	.
4G\	.	4B\	.	4B\	.	4b\	.
=12	=12	=12	=12	=12	=12	=12	=12
2A\	.	4A/	.	2e\	.	2cc\	.
.	.	4G/	.	.	.	.	.
2F\	.	[>2A/	.	4f\	.	2dd\	.
.	.	.	.	4d\	.	.	.
=13	=13	=13	=13	=13	=13	=13	=13
!	!	!	!	!LO:TX:a:t=2	!	!	!
1E	.	2A/]	.	0e	-ctus,	1b	.
.	.	2G#X/	.	.	.	.	.
=14	=14	=14	=14	=14	=14	=14	=14
1AA	-ctus,	2A\	-ctus,	.	.	1cc#X	-ctus,
.	.	[y2e\	Do-	.	.	.	.
=15	=15	=15	=15	=15	=15	=15	=15
!	!	!LO:N:xstem:cue	!	!	!	!LO:TX:a:t=2	!
2r	.	4e\]	.	2r	.	0r	.
.	.	4e\	-mi-	.	.	.	.
[y2A\	Do-	2e\	-nus	[2e\	Do-	.	.
=16	=16	=16	=16	=16	=16	=16	=16
!LO:N:xstem:cue	!	!	!	!	!	!	!
4A\]	.	2.A\	De-	2e\]	.	.	.
4A\	-mi-	.	.	.	.	.	.
2A\	-nus	.	.	4f\	-mi-	.	.
.	.	4B\	-us	4g\	-nus	.	.
!	!	!	!	!LO:LB:g=original	!	!	!
=17	=17	=17	=17	=17	=17	=17	=17
2.E\	De-	4c\	De-	2.g\	De-	2r	.
.	.	4d\	.	.	.	.	.
!	!	!LO:LB:g=original	!	!	!	!	!
.	.	[2B\	.	.	.	[2ee\	Do-
4F\	.	.	.	8f#X\L	.	.	.
.	.	.	.	8e\J	.	.	.
!	!	!	!	!	!	!LO:LB:g=original	!
=18	=18	=18	=18	=18	=18	=18	=18
2G#X\	.	2B\]	.	2d\	.	4ee\]	.
.	.	.	.	.	.	4ee\	-mi-
2A\	-us	2c\	-us	2c\	-us	2ee\	-nus
=19	=19	=19	=19	=19	=19	=19	=19
1F	sa-	2f\	De-	4.a\	sa-	4a\	De-
.	.	.	.	.	.	4b\	.
.	.	.	.	8g\	.	.	.
.	.	2f\	-us	2f\	.	4cc\	.
.	.	.	.	.	.	4dd\	.
!LO:LB:g=original	!	!	!	!	!	!	!
=20	=20	=20	=20	=20	=20	=20	=20
2.G\	.	4e\	sa-	2.g\	.	8b\L	us
.	.	.	.	.	.	8g\J	.
.	.	8d\L	.	.	.	2cc\	sa-
.	.	8c\J	.	.	.	.	.
.	.	4d\	.	.	.	.	.
!	!	!LO:TX:a:t=Lento	!	!	!	!	!
4G\	-ba-	4d\	-ba-	4g\	-ba-	4b\	-ba-
=21||	=21||	=21||	=21||	=21||	=21||	=21||	=21||
*M4/4	*	*M4/4	*	*M4/4	*	*M4/4	*
*met(C.)	*	*met(C.)	*	*met(c)	*	*met(C.)	*
!LO:TX:a:t=Lento&colon;	!	!	!	!	!	!	!
2C/	-ot,	2e\	-ot,	2g\	-ot,	4cc\	-ot,
.	.	.	.	.	.	4cc\	ple-
2G\	Ple-	2r	.	2r	.	4b\	-ni
.	.	.	.	.	.	4g\	sunt
=22	=22	=22	=22	=22	=22	=22	=22
!	!	!LO:TX:a:t=2	!	!	!	!	!
4F\	-ni	0r	.	2r	.	8a\L	cel-
.	.	.	.	.	.	8g\J	.
4D\	sunt	.	.	.	.	8a\L	.
.	.	.	.	.	.	8b\J	.
8E\L	ce-	.	.	2g\	Ple-	2cc\	.
8D\J	.	.	.	.	.	.	.
8E\L	.	.	.	.	.	.	.
8F\J	.	.	.	.	.	.	.
!	!	!	!	!	!	!LO:LB:g=original	!
=23	=23	=23	=23	=23	=23	=23	=23
2G\	.	.	.	4d\	-ni	4b\	-li
.	.	.	.	8d\L	sunt	4g\	et
.	.	.	.	8e\J	.	.	.
4F\	-li	.	.	8f\L	.	2dd\	ter-
.	.	.	.	8g\J	.	.	.
4D\	et	.	.	[4a\	cel-	.	.
!	!	!	!	!LO:LB:g=original	!	!	!
=24	=24	=24	=24	=24	=24	=24	=24
8A\L	ter-	2e\	Ple-	8a\L]	.	2cc\	.
8E\J	.	.	.	8g\J	.	.	.
2A\	.	.	.	4f\	.	.	.
.	.	4d\	-ni	2e\	.	2b\	.
4G#X\	.	4B\	sunt	.	.	.	.
=25	=25	=25	=25	=25	=25	=25	=25
4A\	-ra	8c\L	cel-	4e\	-li,	2a\	-ra
.	.	8B\J	.	.	.	.	.
4A\	Ple-	8c\L	.	8e\L	Ple-	.	.
.	.	8d\J	.	8f\J	.	.	.
4Gn\	-ni	2e\	.	4g\	-ni	2r	.
4E\	sunt	.	.	4g\	sunt	.	.
!LO:LB:g=original	!	!LO:LB:g=original	!	!	!	!	!
=26	=26	=26	=26	=26	=26	=26	=26
8F\L	cel-	2A\	-li	8a\L	cel-	2dd\	ple-
8E\J	.	.	.	8g\J	.	.	.
8F\L	.	.	.	8f\L	.	.	.
8G\J	.	.	.	8d\J	.	.	.
2A\	.	2r	.	4a\	.	4cc\	-ni
.	.	.	.	4e\	.	4a\	sunt
=27	=27	=27	=27	=27	=27	=27	=27
2G\	-li	2r	.	4g\	-li.	8b\L	cel-
.	.	.	.	.	.	8a\J	.
.	.	.	.	8d\L	et	8b\L	.
.	.	.	.	8e\J	.	8cc\J	.
2F\	et	2A\	ple-	2f\	ter-	8dd\L	.
.	.	.	.	.	.	8a\J	.
.	.	.	.	.	.	[4dd\	.
=28	=28	=28	=28	=28	=28	=28	=28
2E\	ter-	4G/	-ni	2g\	-ra,	4dd\]	.
.	.	4E/	sunt	.	.	4cc#X\	.
4D\	-ra	8F/L	cel-	2r	.	2dd\	-li,
.	.	8G/J	.	.	.	.	.
4D\	et	8A\L	.	.	.	.	.
.	.	8B\J	.	.	.	.	.
=29	=29	=29	=29	=29	=29	=29	=29
!	!	!	!	!LO:TX:a:t=1.	!	!	!
4C/	ter-	2c\	.	1r	.	4r	.
4AA/	.	.	.	.	.	4a\	ple-
8BB/L	.	2B\	-li	.	.	4g\	-ni
8AA/J	.	.	.	.	.	.	.
8BB/L	.	.	.	.	.	4e/	sunt
8C/J	.	.	.	.	.	.	.
!	!	!	!	!	!	!LO:LB:g=original	!
=30	=30	=30	=30	=30	=30	=30	=30
2D\	.	4r	.	4r	.	8f/L	ce-
.	.	.	.	.	.	8e/J	.
.	.	4d\	ple-	4f\	ple-	8f/L	.
.	.	.	.	.	.	8g/J	.
2AA/	-ra	4c\	-ni	4e\	-ni	2a\	.
.	.	4A\	sunt	4c\	sunt	.	.
!	!	!	!	!LO:LB:g=original	!	!	!
=31	=31	=31	=31	=31	=31	=31	=31
4r	.	2B\	cel-	4d\	cel-	4g/	-li,
4E\	ple-	.	.	4e\	.	4gg\	cel-
4D\	-ni	2B\	-li	4f#X\	-li	4ff#X\	-li
4BB/	sunt	.	.	4g\	et	4dd\	et
!LO:LB:g=original	!	!	!	!	!	!	!
=32	=32	=32	=32	=32	=32	=32	=32
8C/L	ce-	4r	.	1g	ter-	1ee	ter-
8BB/J	.	.	.	.	.	.	.
8C/L	.	4c\	ple-	.	.	.	.
8D/J	.	.	.	.	.	.	.
2E\	.	4B\	-ni	.	.	.	.
.	.	4G\	sunt	.	.	.	.
!	!	!LO:LB:g=original	!	!	!	!	!
=33	=33	=33	=33	=33	=33	=33	=33
2D\	-li	8A\L	cel-	2fn\	.	4ffn\	-ra,
.	.	8G\J	.	.	.	.	.
.	.	8A\L	.	.	.	4ff\	ple-
.	.	8B\J	.	.	.	.	.
2C/	et	8c\L	.	4g\	-ra,	4ee\	-ni
.	.	8G\J	.	.	.	.	.
.	.	[4A\	-li	4r	.	4cc\	sunt
=34	=34	=34	=34	=34	=34	=34	=34
4.BB/	ter-	4A\]	.	2r	.	8dd\L	ce-
.	.	.	.	.	.	8cc\J	.
.	.	4G\	et	.	.	8dd\L	.
8C/	.	.	.	.	.	8ee\J	.
8D\L	.	8F\L	ter-	8a\L	cel-	2ff\	.
8E\J	.	8G\J	.	8g\J	.	.	.
8F\L	.	8A\L	-ra	8f\	-li	.	.
8G\J	.	8B\J	.	8d\	et	.	.
=35	=35	=35	=35	=35	=35	=35	=35
4A\	.	4c\	cel-	4c#X\	ter-	8ee\L	-li
.	.	.	.	.	.	8a\J	et
4F\	.	8f\	-li	4fn\	.	2dd\	ter-
.	.	8f\	et	.	.	.	.
4G\	.	2e\	ter-	4d\	.	.	.
4A\	.	.	.	8a\L	.	4cc#X\	.
.	.	.	.	8g\J	.	.	.
!	!	!	!	!	!	!LO:LB:g=original	!
=36	=36	=36	=36	=36	=36	=36	=36
2D\	-ra,	2d\	-ra	4f#X\	-ra	4dd\	-ra,
.	.	.	.	4r	.	4.dd\	glo-
4.G\	glo-	2r	.	2d\	glo-	.	.
.	.	.	.	.	.	8cc\	-ri-
.	.	.	.	.	.	4b\	-a
8F\	-ri-	.	.	.	.	.	.
!	!	!	!	!LO:LB:g=original	!	!	!
=37	=37	=37	=37	=37	=37	=37	=37
2E\	-a	4r	.	4.g\	.	4r	.
.	.	4.e\	glo-	.	.	4.cc\	glo-
.	.	.	.	16a\LL	-ri-	.	.
.	.	.	.	16g\JJ	.	.	.
4.F\	glo-	.	.	2fn\	-a,	.	.
.	.	8d\	-ri-	.	.	8b\	-ri-
.	.	4c\	-a	.	.	4a\	-a
8E\	-ri-	.	.	.	.	.	.
=38	=38	=38	=38	=38	=38	=38	=38
2D\	-a	4.d\	glo-	4.f\	tu-	4a\	tu-
.	.	.	.	.	.	2a\	.
.	.	8c\	.	16g\LL	.	.	.
.	.	.	.	16f\JJ	.	.	.
!LO:LB:g=original	!	!LO:LB:g=original	!	!	!	!	!
2E\	tu-	8B\L	.	2e\	.	.	.
.	.	8A\J	-ri-	.	.	.	.
.	.	4B\	-a	.	.	4g#X\	.
=39	=39	=39	=39	=39	=39	=39	=39
2AA/	-a,	4c\	tu-	2e\	-a	2a\	-a,
.	.	4e\	.	.	.	.	.
2A\	O-	8A\L	-a,	2r	.	2r	.
.	.	8B\J	.	.	.	.	.
.	.	8c\L	o-	.	.	.	.
.	.	8d\J	.	.	.	.	.
=40	=40	=40	=40	=40	=40	=40	=40
!	!	!	!	!	!	!LO:TX:a:t=1.	!
8E\L	-san-	2B\	-san-	2g\	O-	1r	.
8F\J	.	.	.	.	.	.	.
8G\L	.	.	.	.	.	.	.
8A\J	.	.	.	.	.	.	.
4F\	-na	8A/	.	4a\	-san-	.	.
.	.	8D/	-na	.	.	.	.
4F\	O-	[4d\	in	4a\	-na	.	.
=41	=41	=41	=41	=41	=41	=41	=41
8E\	-san-	4d\]	.	4g\	in	4r	.
8AA/	-na	.	.	.	.	.	.
2A\	in	4c\	ex-	4f\	ex-	4ee\	O-
.	.	[2B\	-cel-	2e\	.	8b\L	-san-
.	.	.	.	.	.	8cc\J	.
4G#X\	ex-	.	.	.	.	8dd\L	.
.	.	.	.	.	.	8ee\J	.
=42	=42	=42	=42	=42	=42	=42	=42
2A\	-cel-	4B\]	.	2e\	-cel-	4cc\	-na
.	.	2A\	.	.	.	4cc\	in
!	!	!	!	!	!	!LO:LB:g=original	!
2E\	-sis	.	.	2e\	-sis,	8b\	.
.	.	.	.	.	.	8e/	ex-
.	.	4G/	.	.	.	[4ee\	-cel-
=43	=43	=43	=43	=43	=43	=43	=43
8BB/L	o-	2F#X/	.	8d\L	o-	4ee\]	.
8C/J	.	.	.	8e\J	.	.	.
8D\L	.	.	.	8f#X\L	.	4dd\	.
8E\J	.	.	.	8g\J	.	.	.
!	!	!	!	!LO:LB:g=original	!	!	!
4C/	-san-	8A/	-sis	4g\	-san-	2ee\	-sis,
.	.	8E/	o-	.	.	.	.
4C/	-na	4A/	-san-	4e\	-na	.	.
!	!	!LO:LB:g=original	!	!	!	!	!
=44	=44	=44	=44	=44	=44	=44	=44
8BB/	in	4A/	.	4fn\	in	2r	.
8BB/	ex-	.	.	.	.	.	.
!LO:LB:g=original	!	!	!	!	!	!	!
2E\	-cel-	4G/	.	4d\	ex-	.	.
.	.	2F#X/	.	4c\	-cel-	2b\	O-
4D\	.	.	.	4d\	-sis,	.	.
=45	=45	=45	=45	=45	=45	=45	=45
2.C/	.	8G/L	-na	8c\L	o-	8e/L	-san-
.	.	8Fn/J	.	8d\	.	8fn/J	.
.	.	2E/	in	8e\	-san-	8g\L	-na
.	.	.	.	8fn\J	.	8a\J	O-
.	.	.	.	2g\	-na	4f/	-san-
4BB/	.	4D/	ex-	.	.	4f/	-na
=46	=46	=46	=46	=46	=46	=46	=46
2C/	-sis	4E/	-cel-	2g\	in	8e/	in
.	.	.	.	.	.	8c/	ex-
.	.	8e\	-sis	.	.	2cc\	-cel-
.	.	8e\	o-	.	.	.	.
2G\	O-	4.d\	-san-	2g\	ex-	.	.
.	.	.	.	.	.	8b\L	-sis
.	.	8e\	.	.	.	8cc\J	.
=47	=47	=47	=47	=47	=47	=47	=47
8D\L	-san-	2f\	.	2a\	-cel-	2.dd\	in
8E\J	.	.	.	.	.	.	.
8F\L	.	.	.	.	.	.	.
8G\J	.	.	.	.	.	.	.
2A\	-na	2e\	-na	2a\	-sis	.	.
.	.	.	.	.	.	4cc\	ex-
=48	=48	=48	=48	=48	=48	=48	=48
8G\	in	4r	.	4d\	o-	2b\	-cel-
8D\	ex-	.	.	.	.	.	.
2G\	-cel-	4d\	o-	2e\	-san-	.	.
.	.	8A\L	-san-	.	.	2a\	.
.	.	8B\J	.	.	.	.	.
4F#X\	.	8c\L	.	4f#X\	-na	.	.
.	.	8d\J	.	.	.	.	.
!	!	!	!	!	!	!LO:LB:g=original	!
=49	=49	=49	=49	=49	=49	=49	=49
2G\	.	4B\	.	4d\	in	2g\	-sis,
.	.	4B\	-na	4g\	ex-	.	.
2Fn\	.	8A/	in	2a\	-cel-	2r	.
.	.	8D/	ex-	.	.	.	.
.	.	[4d\	-cel-	.	.	.	.
!	!	!LO:LB:g=original	!	!LO:LB:g=original	!	!	!
=50	=50	=50	=50	=50	=50	=50	=50
!	!	!LO:TX:a:t=P:problem:brak zakończenia ligatury	!	!	!	!	!
4.E\	sis,	4d\]	.	4g\	-sis,	8g/L	o-
.	.	.	.	.	.	8e/J	.
.	.	2c\	.	2r	.	2ee\	-san-
8F\	o-	.	.	.	.	.	.
4G\	-san-	.	.	.	.	.	.
4G\	-na	4B\	-sis,	4r	.	[4dd\	-na
!LO:LB:g=original	!	!	!	!	!	!	!
=51	=51	=51	=51	=51	=51	=51	=51
8E\	in	4B\	o-	4e\	o-	4dd\]	.
8AA/	ex-	.	.	.	.	.	.
2A\	-cel-	4A\	.	2f\	-san-	2cc\	in
.	.	4D/	-san-	.	.	.	.
4G\	-sis	4E/	-na	4g\	-na	4b\	ex-
=52	=52	=52	=52	=52	=52	=52	=52
8A\L	in	8E/L	in	2e\	in	2a\	-cel-
8G\J	.	8G#X/J	.	.	.	.	.
8F\L	ex-	8A\L	ex-	.	.	.	.
8E\J	.	16B\L	.	.	.	.	.
.	.	16c\JJ	.	.	.	.	.
4D/	-cel-	4d\	-cel-	4f\	.	4ff\	.
4C#X/	.	8e\L	.	8a\L	ex-	[4ee\	.
.	.	8A\J	.	8g\J	.	.	.
=53	=53	=53	=53	=53	=53	=53	=53
1D	.	1A	.	1f	-cel-	4ee\]	.
.	.	.	.	.	.	8dd\L	.
.	.	.	.	.	.	8cc#X\J	.
.	.	.	.	.	.	2dd\	.
=54	=54	=54	=54	=54	=54	=54	=54
!	!	!LO:TX:a:t=2.	!	!LO:TX:a:t=2.	!	!LO:TX:a:t=2	!
0AA	-sis.	0A	sis.	0e	-sis.	0cc#X	-sis.
=55	=55	=55	=55	=55	=55	=55	=55
.	.	.	.	.	.	.	.
==	==	==	==	==	==	==	==
*-	*-	*-	*-	*-	*-	*-	*-
!!!system-decoration: [(s1,s2,s3,s4)]
!!!RDF**kern: > = above
!!!ENC: Zofia Niedbalska
!!!END: 2021-01-27
!!!ENC: Marcin Jachim
!!!END: 2021-01-20
